teeny/solid/users.svg

<svg width="15" height="15" viewBox="0 0 15 15" fill="none" xmlns="http://www.w3.org/2000/svg">
<path d="M5.5 0C3.56717 0 2 1.56567 2 3.49804C2 5.43041 3.56717 6.99609 5.5 6.99609C7.43283 6.99609 9 5.43041 9 3.49804C9 1.56567 7.43283 0 5.5 0Z" fill="black"/>
<path d="M3.5 8.99414C1.56711 8.99414 0 10.5605 0 12.4936V14.9909H11V12.4936C11 10.5605 9.43289 8.99414 7.5 8.99414H3.5Z" fill="black"/>
<path d="M12.5 10H12V15H15V12.5C15 11.1193 13.8807 10 12.5 10Z" fill="black"/>
<path d="M11.5 4C10.1193 4 9 5.11929 9 6.5C9 7.88071 10.1193 9 11.5 9C12.8807 9 14 7.88071 14 6.5C14 5.11929 12.8807 4 11.5 4Z" fill="black"/>
</svg>

<svg viewBox="0 0 15 15" xmlns="http://www.w3.org/2000/svg"><g><path d="M5.5 0C3.56 0 2 1.56 2 3.49c0 1.93 1.56 3.49 3.5 3.49 1.93 0 3.5-1.57 3.5-3.5 0-1.94-1.57-3.5-3.5-3.5Z"/><path d="M3.5 8.99c-1.94 0-3.5 1.56-3.5 3.49v2.49h11v-2.5c0-1.94-1.57-3.5-3.5-3.5h-4Z"/><path d="M12.5 10H12v5h3v-2.5c0-1.39-1.12-2.5-2.5-2.5Z"/><path d="M11.5 4C10.11 4 9 5.11 9 6.5 9 7.88 10.11 9 11.5 9 12.88 9 14 7.88 14 6.5 14 5.11 12.88 4 11.5 4Z"/></g></svg>
